svgs/duotone/key.svg

<svg xmlns="http://www.w3.org/2000/svg" viewBox="0 0 512 512"><!--! Font Awesome Pro 6.0.0-alpha3 by @fontawesome - https://fontawesome.com License - https://fontawesome.com/license (Commercial License) --><defs><style>.fa-secondary{opacity:.4}</style></defs><path class="fa-primary" d="M336 0c-97.2 0-176 78.8-176 176c0 14.71 2.004 28.93 5.406 42.59l128 127.1C307.1 349.1 321.3 351.1 336 351.1c97.2 0 176-78.8 176-176S433.2 0 336 0zM376 176c-22.09 0-40-17.91-40-40S353.9 96 376 96S416 113.9 416 136S398.1 176 376 176z"/><path class="fa-secondary" d="M165.4 218.6l-156 156C3.371 380.6 0 388.8 0 397.3V496C0 504.8 7.164 512 16 512l96 0c8.836 0 16-7.164 16-16v-48h48c8.836 0 16-7.164 16-16v-48h57.37c4.242 0 8.312-1.688 11.31-4.688l32.72-32.72L165.4 218.6z"/></svg>

<svg xmlns="http://www.w3.org/2000/svg" viewBox="0 0 512 512"><!-- Font Awesome Pro 6.0.0-alpha2 by @fontawesome - https://fontawesome.com License - https://fontawesome.com/license (Commercial License) --><defs><style>.fa-secondary{opacity:.4}</style></defs><path d="M165.406 218.594L9.375 374.625C3.371 380.629 0 388.766 0 397.254V496C0 504.836 7.164 512 16 512H112C120.836 512 128 504.836 128 496V448H176C184.836 448 192 440.836 192 432V384H249.375C253.617 384 257.688 382.312 260.688 379.312L293.406 346.594L165.406 218.594Z" class="fa-secondary"/><path d="M336 0C238.797 0 160 78.797 160 176C160 190.715 162.004 204.93 165.406 218.594L293.406 346.594C307.07 349.992 321.281 352 336 352C433.203 352 512 273.203 512 176S433.203 0 336 0ZM376 176C353.906 176 336 158.094 336 136S353.906 96 376 96S416 113.906 416 136S398.094 176 376 176Z" class="fa-primary"/></svg>
